X:1
T:(XI. Offertorium pro festo Doctoris)
T:M. Haller
T:(XI. Offertorium pro festo Doctoris)
C:M. Haller
%%score [ ( 1 2 ) ( 3 4 ) ]
L:1/8
Q:1/4=80
M:4/4
K:F
V:1 treble nm="P1"
V:2 treble 
V:3 bass nm="P2"
V:4 bass 
V:1
!p!"^Andante" F8 |"^-""^-" F6 F2 | A4 A2 c2 |!<(! (=B2 c2"^-""^-" d4) | [Ge]8 || %5
w: Ju-|stus ut|pal- ma flo-|re- * *|bit:|
w: Ju-|* stus||||
w: |||||
[M:3/2][Q:1/2=88] z4!f! e4 e4 | f8 c4 | z4!mf! c4 d4 | c6 B2!<)! A4 | G8 z4 || %10
w: si- cut|ce- drus,|quae in|Li- ba- no|est,|
w: |||||
w: |||||
[M:4/4]!p![Q:1/4=88] F4 G2 A2 | B3!mf! B A2!mf! A2 | B2 c2 d3 d | c2!f! f2 e2 f2 | %14
w: |* * mul- *|ti- pli- ca- bi-|tur, mul- ti- pli-|
w: ||||
w: mul- ti- pli-|ca- bi- tur, mul-|ti- pli- ca- bi-|tur, * * *|
 (g2 fe"^-" d3) d ||[M:3/2]"^-"[Q:1/2=88] c4!f! e4 e4 | f8 c4 | z4 c4!>(! d4 | c6 B2 A4!>)! | %19
w: ca- * * * bi-|tur, si- cut|ce- drus,|quae in|Li- ba- no|
w: |||||
w: |||||
 G8 z4 ||[M:4/4]!p![Q:1/4=88] F4 G2 A2 | B3!mf! B A2!mf! A2 | B2 c2 d3 d | c2!f! f2 e2 f2 | %24
w: est,||* * mul- *|ti- pli- ca- bi-|tur, mul- ti- pli-|
w: ||||mul- * ti- pli-|
w: |mul- ti- pli-|ca- bi- tur, mul-|ti- pli- ca- bi-|tur, * * *|
 d3 e f4 | e4 f2 c2 | (c3 B/A/ G2) G2 |!>(! !fermata!A8!>)! |] %28
w: ca- bi- tur,|mul- ti- pli-|ca- * * bi- *|tur.|
w: ca- bi- tur,||||
w: ||||
[M:4/4]"^TemporePaschali:"!f! c6"^-" d2 | (c3"^-" B) A2 c2 | (de"^-" f4) e2 | %31
w: Al- le-|* * ja, al-|le- * * lu-|
w: Al- le-|lu- * ja, *||
w: Al- le-|lu- * ja, *||
!>(!!>(! !fermata!f8!>)!!>)! |] %32
w: ja.|
w: |
w: |
V:2
 (C4 D4) | C6 C2 | F4 F2 G2 | G8 | x8 ||[M:3/2] x4 G4 G4 | F8 F4 | x4 F4 F4 | G6 G2 F4 | E8 x4 || %10
[M:4/4] z8 | z4 F4 | G2 A2 B3 B | A2 c2 B2 A2 | (=B2 c4) B2 ||[M:3/2] c4 G4 G4 | F8 F4 | x4 F4 F4 | %18
 G6 G2 F4 | E8 x4 ||[M:4/4] z8 | z4 F4 | G2 A2 B3 B | A2 c2 B2 A2 | F3 G A4 | G4 A2 A2 | %26
 (G2 F4) E2 | F8 |][M:4/4] G4 F2 (BA | G4) F2 GA | (B2 F2 G2) G2 | A8 |] %32
V:3
!p! (A,4 B,4- | B,2 A,2) A,2 A,2 | C4 D2 E2 |!<(! (D2 C4 =B,2) | [C,C]8 ||[M:3/2]!f! C8 C4 | %6
w: ||||||
w: |||||si- cut|
w: Ju- *|stus * * *|||||
 C8 A,4 | z4!mf! A,4 A,4 | C6 C2!<)! C4 | C8 z4 ||[M:4/4] z8 | z8 | z8 |!f! A,4 B,2 C2 | %14
w: |||||||mul- ti- pli-|
w: ||||||||
w: ||||||||
 (D3 E/F/"^-" G3) F ||[M:3/2] E4!f! C4 C4 | C8 A,4 | z4 A,4!>(! A,4 | C6 C2 C4 | C8!>)! z4 || %20
w: ca- * * * bi-||||||
w: ||||||
w: ||||||
[M:4/4] z8 | z8 | z8 |!f! A,4 B,2 C2 | D3 D C4 | C4 C2 F2 | (E2 F2) C4 |!>(! C8!>)! |] %28
w: ||||||||
w: ||||||||
w: ||||||||
[M:4/4]!f! E4"^-" F2 F2- | F2 E2 F2 E2 | F2 C2 D2 C2 |!>(!!>(! C8!>)!!>)! |] %32
w: ||||
w: ||||
w: ||||
V:4
 (F,4 B,,4) | F,6 F,2 | F,4 D,2 C,2 | G,8 | x8 ||[M:3/2] C8 C4 | A,8 F,4 | x4 F,4 D,4 | %8
 E,6 E,2 F,4 | C,8 x4 ||[M:4/4] x8 | x8 | x8 | F,4 G,2 A,2 | G,6 G,2 ||[M:3/2] C,4 C4 C4 | %16
 A,8 F,4 | x4 F,4 D,4 | E,6 E,2 F,4 | C,8 x4 ||[M:4/4] x8 | x8 | x8 | F,4 G,2 A,2 | B,3 B, A,4 | %25
 C4 F,2 A,2 | C4 C,4 | !fermata!F,8 |][M:4/4] C3 B, A,2 B,2 | C4 D2 C2 | (B,3 A, B,2) C2 | %31
 !fermata!F,8 |] %32

